Dominus_Dark_Funeral/scalable/apps/conduit.svg

<svg xmlns="http://www.w3.org/2000/svg" xmlns:xlink="http://www.w3.org/1999/xlink" width="48" height="48" viewBox="0 0 12.7 12.7"><defs><linearGradient id="f"><stop offset="0" stop-color="#b3b3b3"/><stop offset=".57" stop-color="#fff"/><stop offset="1" stop-color="#999"/></linearGradient><linearGradient id="e"><stop offset="0" stop-color="#fff"/><stop offset="1" stop-opacity=".9"/></linearGradient><linearGradient id="d"><stop offset="0"/><stop offset="1" stop-opacity="0"/></linearGradient><linearGradient id="a"><stop offset="0" stop-color="#000007"/><stop offset="1" stop-opacity="0"/></linearGradient><linearGradient xlink:href="#a" id="c" gradientUnits="userSpaceOnUse" x1="3.26" y1="286.78" x2="10.76" y2="294.29"/><linearGradient id="b"><stop offset="0" stop-color="#fff"/><stop offset="1" stop-color="#fff" stop-opacity="0"/></linearGradient><radialGradient xlink:href="#d" id="i" cx="99.73" cy="27.42" fx="64.69" fy="68.23" r="56" gradientUnits="userSpaceOnUse" gradientTransform="matrix(.024 .02844 -.01757 .01483 12.55 286.29)"/><clipPath id="j"><path d="M-76.4 7.9c-30.97 0-56 25.04-56 56 0 30.97 25.03 56 56 56a55.62 55.62 0 0 0 54.53-44L-49 72.04A28.46 28.46 0 0 1-76.4 92.5 28.66 28.66 0 0 1-105 63.9a28.66 28.66 0 0 1 28.6-28.59c7.87 0 15.05 3.21 20.21 8.38a4 4 0 0 1 0 5.69L-66.8 60h43.94c2 0 2.46-.6 2.46-2.25l-.09-44.1-10.63 10.66a4 4 0 0 1-5.68 0 55.78 55.78 0 0 0-39.6-16.4z" fill="none" stroke="url(#c)" stroke-linecap="round" stroke-linejoin="round" stroke-dashoffset="1.09" filter="url(#filter3639)"/></clipPath><clipPath id="p"><path d="M-70.42 197.31a15.03 15.03 0 0 1-30.05 0 15.03 15.03 0 1 1 30.05 0z" fill="#f586db" fill-opacity=".78" stroke-width="4"/></clipPath><radialGradient xlink:href="#b" id="q" gradientUnits="userSpaceOnUse" gradientTransform="translate(-100.7 30.87) scale(1.15534)" cx="16.04" cy="140.06" fx="16.04" fy="140.06" r="13.01"/><linearGradient xlink:href="#a" id="k" gradientUnits="userSpaceOnUse" gradientTransform="translate(-140)" x1="75.09" y1="4.53" x2="75.09" y2="73.9"/><linearGradient xlink:href="#e" id="h" x1="-131.91" y1="37.42" x2="-19.47" y2="58.94" gradientUnits="userSpaceOnUse" gradientTransform="matrix(.0378 .0378 -.0378 .0378 17.57 289.28)"/><linearGradient xlink:href="#f" id="g" x1="4.66" y1="295.88" x2="6.35" y2="284.39" gradientUnits="userSpaceOnUse"/><radialGradient xlink:href="#d" id="m" cx="99.73" cy="27.42" fx="64.69" fy="68.23" r="56" gradientUnits="userSpaceOnUse" gradientTransform="matrix(-.024 -.02844 .01757 -.01483 .33 292.52)"/><clipPath id="n"><path d="M-76.4 7.9c-30.97 0-56 25.04-56 56 0 30.97 25.03 56 56 56a55.62 55.62 0 0 0 54.53-44L-49 72.04A28.46 28.46 0 0 1-76.4 92.5 28.66 28.66 0 0 1-105 63.9a28.66 28.66 0 0 1 28.6-28.59c7.87 0 15.05 3.21 20.21 8.38a4 4 0 0 1 0 5.69L-66.8 60h43.94c2 0 2.46-.6 2.46-2.25l-.09-44.1-10.63 10.66a4 4 0 0 1-5.68 0 55.78 55.78 0 0 0-39.6-16.4z" fill="none" stroke="url(#c)" stroke-linecap="round" stroke-linejoin="round" stroke-dashoffset="1.09" filter="url(#filter3639)"/></clipPath><clipPath id="r"><path d="M-70.42 197.31a15.03 15.03 0 0 1-30.05 0 15.03 15.03 0 1 1 30.05 0z" fill="#f586db" fill-opacity=".78" stroke-width="4"/></clipPath><radialGradient xlink:href="#b" id="s" gradientUnits="userSpaceOnUse" gradientTransform="translate(-100.7 30.87) scale(1.15534)" cx="16.04" cy="140.06" fx="16.04" fy="140.06" r="13.01"/><linearGradient xlink:href="#e" id="l" gradientUnits="userSpaceOnUse" gradientTransform="matrix(-.0378 -.0378 .0378 -.0378 -4.7 289.52)" x1="-131.91" y1="37.42" x2="-19.47" y2="58.94"/><linearGradient xlink:href="#a" id="o" gradientUnits="userSpaceOnUse" gradientTransform="translate(-140)" x1="75.09" y1="4.53" x2="75.09" y2="73.9"/></defs><path d="M6.35 284.4c-1.54 0-2.78.29-3.69.87A3.67 3.67 0 0 0 1 288.52c0 1.91 1.54 4.47 2.01 5.2.54.85 1.13 1.61 1.65 2.16.68.7 1.21 1.03 1.69 1.03s1.01-.33 1.69-1.03c.52-.55 1.11-1.31 1.65-2.15.47-.74 2-3.3 2-5.21 0-1.42-.57-2.54-1.65-3.25a6.75 6.75 0 0 0-3.69-.88z" fill="url(#g)" transform="translate(0 -284.3)"/><path d="M14.4 286.71a3 3 0 0 0-4.23 0l-.1.12 1.03 1.04.1-.12a1.53 1.53 0 0 1 2.62 1.08.21.21 0 0 1-.22.21h-.8l1.66 1.66c.07.08.11.07.18.01l1.66-1.67h-.8a.21.21 0 0 1-.22-.21c0-.77-.3-1.53-.88-2.12z" fill="url(#h)" fill-rule="evenodd" transform="translate(-5.3 -284.3)"/><path d="M14.4 286.71a3 3 0 0 0-4.23 0l-.1.12 1.03 1.04.1-.12a1.53 1.53 0 0 1 2.62 1.08.21.21 0 0 1-.22.21h-.8l1.66 1.66c.07.08.11.07.18.01l1.66-1.67h-.8a.21.21 0 0 1-.22-.21c0-.77-.3-1.53-.88-2.12z" opacity=".5" fill="url(#i)" transform="translate(-5.3 -284.3)"/><path d="M-75.9 7.9a55.96 55.96 0 0 0-55.98 57.7c6 .67 12.15 1.14 18.41 1.4a38.35 38.35 0 0 1 11.81-28.78 38.52 38.52 0 0 1 61 10.37L-61.16 59H-42c7.93-2.03 15.19-3.44 22.1-6.19l-.1-39.15-10.63 10.65a4 4 0 0 1-5.68 0 55.78 55.78 0 0 0-39.6-16.4z" clip-path="url(#j)" transform="scale(.05345) rotate(45 2.38 323.9)" opacity=".46" fill="url(#k)"/><g><path d="M-1.53 292.1a3 3 0 0 0 4.23 0l.11-.13-1.04-1.04-.1.13a1.53 1.53 0 0 1-2.61-1.08.21.21 0 0 1 .21-.22h.8l-1.66-1.66c-.07-.07-.11-.07-.17 0l-1.67 1.66h.8a.21.21 0 0 1 .22.22c0 .76.3 1.53.88 2.11z" fill="url(#l)" fill-rule="evenodd" transform="translate(5.3 -284.3)"/><path d="M-1.53 292.1a3 3 0 0 0 4.23 0l.11-.13-1.04-1.04-.1.13a1.53 1.53 0 0 1-2.61-1.08.21.21 0 0 1 .21-.22h.8l-1.66-1.66c-.07-.07-.11-.07-.17 0l-1.67 1.66h.8a.21.21 0 0 1 .22.22c0 .76.3 1.53.88 2.11z" opacity=".5" fill="url(#m)" transform="translate(5.3 -284.3)"/><path d="M-75.9 7.9a55.96 55.96 0 0 0-55.98 57.7c6 .67 12.15 1.14 18.41 1.4a38.35 38.35 0 0 1 11.81-28.78 38.52 38.52 0 0 1 61 10.37L-61.16 59H-42c7.93-2.03 15.19-3.44 22.1-6.19l-.1-39.15-10.63 10.65a4 4 0 0 1-5.68 0 55.78 55.78 0 0 0-39.6-16.4z" clip-path="url(#n)" transform="matrix(-.0378 -.0378 .0378 -.0378 .6 5.22)" opacity=".46" fill="url(#o)"/></g><g><g clip-path="url(#p)" transform="matrix(.06482 0 0 .06482 10.9 -9.95)" opacity=".8"><path d="M-70.42 197.31a15.03 15.03 0 0 1-30.05 0 15.03 15.03 0 1 1 30.05 0z" fill="#a90000"/><path d="M-67.15 192.68a15.03 15.03 0 0 1-30.05 0 15.03 15.03 0 1 1 30.05 0z" opacity=".9" fill="url(#q)"/></g><g clip-path="url(#r)" transform="rotate(179.61 .98 10.08) scale(.06482)" opacity=".8"><path d="M-70.42 197.31a15.03 15.03 0 0 1-30.05 0 15.03 15.03 0 1 1 30.05 0z" fill="#a90000"/><path d="M-67.15 192.68a15.03 15.03 0 0 1-30.05 0 15.03 15.03 0 1 1 30.05 0z" opacity=".9" fill="url(#s)"/></g></g><path d="M6.35.1C4.81.1 3.57.38 2.66.96A3.67 3.67 0 0 0 1 4.22c0 1.91 1.54 4.47 2.01 5.2.54.85 1.13 1.61 1.65 2.16.68.7 1.21 1.03 1.69 1.03s1.01-.33 1.69-1.03c.52-.55 1.11-1.31 1.65-2.15.47-.74 2-3.3 2-5.21 0-1.42-.57-2.54-1.65-3.25A6.75 6.75 0 0 0 6.35.1zm0 .03C6.91.15 7.44.2 7.9.31a5.82 5.82 0 0 1 1.6.66 3.65 3.65 0 0 1 1.24 1.36c.14.27.25.57.32.88a4.61 4.61 0 0 1-.14 2.53c-.15.52-.36 1.04-.58 1.52-.44.97-.95 1.8-1.18 2.17-.54.84-1.12 1.6-1.65 2.15-.34.35-.64.61-.92.78a.96.96 0 0 1-.24.1.96.96 0 0 1-.24-.1 4.76 4.76 0 0 1-.92-.78 14.42 14.42 0 0 1-1.65-2.15c-.23-.37-.74-1.2-1.18-2.17-.22-.48-.43-1-.58-1.52a4.6 4.6 0 0 1-.14-2.52 3.73 3.73 0 0 1 .84-1.64 3.65 3.65 0 0 1 1.45-1c.27-.1.56-.2.87-.27.46-.1 1-.16 1.55-.18z" opacity=".25" fill="#1a1a1a"/></svg>

<?xml version="1.0" encoding="UTF-8" standalone="no"?>
<svg
   xmlns:dc="http://purl.org/dc/elements/1.1/"
   xmlns:cc="http://creativecommons.org/ns#"
   xmlns:rdf="http://www.w3.org/1999/02/22-rdf-syntax-ns#"
   xmlns:svg="http://www.w3.org/2000/svg"
   xmlns="http://www.w3.org/2000/svg"
   xmlns:xlink="http://www.w3.org/1999/xlink"
   xmlns:sodipodi="http://sodipodi.sourceforge.net/DTD/sodipodi-0.dtd"
   xmlns:inkscape="http://www.inkscape.org/namespaces/inkscape"
   width="48"
   height="48"
   viewBox="0 0 12.7 12.7"
   version="1.1"
   id="svg85"
   sodipodi:docname="conduit.svg"
   inkscape:version="0.92.4 (5da689c313, 2019-01-14)">
  <metadata
     id="metadata89">
    <rdf:RDF>
      <cc:Work
         rdf:about="">
        <dc:format>image/svg+xml</dc:format>
        <dc:type
           rdf:resource="http://purl.org/dc/dcmitype/StillImage" />
        <dc:title></dc:title>
      </cc:Work>
    </rdf:RDF>
  </metadata>
  <sodipodi:namedview
     pagecolor="#ffffff"
     bordercolor="#666666"
     borderopacity="1"
     objecttolerance="10"
     gridtolerance="10"
     guidetolerance="10"
     inkscape:pageopacity="0"
     inkscape:pageshadow="2"
     inkscape:window-width="1112"
     inkscape:window-height="480"
     id="namedview87"
     showgrid="false"
     inkscape:zoom="4.9166667"
     inkscape:cx="2.1355932"
     inkscape:cy="24"
     inkscape:window-x="0"
     inkscape:window-y="25"
     inkscape:window-maximized="0"
     inkscape:current-layer="svg85" />
  <defs
     id="defs51">
    <linearGradient
       id="f">
      <stop
         offset="0"
         stop-color="#b3b3b3"
         id="stop2" />
      <stop
         offset=".57"
         stop-color="#fff"
         id="stop4" />
      <stop
         offset="1"
         stop-color="#999"
         id="stop6" />
    </linearGradient>
    <linearGradient
       id="e">
      <stop
         offset="0"
         stop-color="#fff"
         id="stop9" />
      <stop
         offset="1"
         stop-opacity=".9"
         id="stop11" />
    </linearGradient>
    <linearGradient
       id="d">
      <stop
         offset="0"
         id="stop14" />
      <stop
         offset="1"
         stop-opacity="0"
         id="stop16" />
    </linearGradient>
    <linearGradient
       id="a">
      <stop
         offset="0"
         stop-color="#000007"
         id="stop19" />
      <stop
         offset="1"
         stop-opacity="0"
         id="stop21" />
    </linearGradient>
    <linearGradient
       xlink:href="#a"
       id="c"
       gradientUnits="userSpaceOnUse"
       x1="3.26"
       y1="286.78"
       x2="10.76"
       y2="294.29" />
    <linearGradient
       id="b">
      <stop
         offset="0"
         stop-color="#fff"
         id="stop25" />
      <stop
         offset="1"
         stop-color="#fff"
         stop-opacity="0"
         id="stop27" />
    </linearGradient>
    <radialGradient
       xlink:href="#d"
       id="i"
       cx="99.73"
       cy="27.42"
       fx="64.69"
       fy="68.23"
       r="56"
       gradientUnits="userSpaceOnUse"
       gradientTransform="matrix(0.024,0.02844,-0.01757,0.01483,7.25,1.99)" />
    <clipPath
       id="j">
      <path
         d="M-76.4 7.9c-30.97 0-56 25.04-56 56 0 30.97 25.03 56 56 56a55.62 55.62 0 0 0 54.53-44L-49 72.04A28.46 28.46 0 0 1-76.4 92.5 28.66 28.66 0 0 1-105 63.9a28.66 28.66 0 0 1 28.6-28.59c7.87 0 15.05 3.21 20.21 8.38a4 4 0 0 1 0 5.69L-66.8 60h43.94c2 0 2.46-.6 2.46-2.25l-.09-44.1-10.63 10.66a4 4 0 0 1-5.68 0 55.78 55.78 0 0 0-39.6-16.4z"
         fill="none"
         stroke="url(#c)"
         stroke-linecap="round"
         stroke-linejoin="round"
         stroke-dashoffset="1.09"
         filter="url(#filter3639)"
         id="path31" />
    </clipPath>
    <clipPath
       id="p">
      <path
         d="M-70.42 197.31a15.03 15.03 0 0 1-30.05 0 15.03 15.03 0 1 1 30.05 0z"
         fill="#f586db"
         fill-opacity=".78"
         stroke-width="4"
         id="path34" />
    </clipPath>
    <radialGradient
       xlink:href="#b"
       id="q"
       gradientUnits="userSpaceOnUse"
       gradientTransform="matrix(1.15534,0,0,1.15534,-100.7,30.87)"
       cx="16.04"
       cy="140.06"
       fx="16.04"
       fy="140.06"
       r="13.01" />
    <linearGradient
       xlink:href="#a"
       id="k"
       gradientUnits="userSpaceOnUse"
       gradientTransform="translate(-140)"
       x1="75.09"
       y1="4.53"
       x2="75.09"
       y2="73.9" />
    <linearGradient
       xlink:href="#e"
       id="h"
       x1="-131.91"
       y1="37.42"
       x2="-19.47"
       y2="58.94"
       gradientUnits="userSpaceOnUse"
       gradientTransform="matrix(0.0378,0.0378,-0.0378,0.0378,12.27,4.98)" />
    <linearGradient
       xlink:href="#f"
       id="g"
       x1="4.66"
       y1="295.88"
       x2="6.35"
       y2="284.39"
       gradientUnits="userSpaceOnUse"
       gradientTransform="translate(0,-284.3)" />
    <radialGradient
       xlink:href="#d"
       id="m"
       cx="99.73"
       cy="27.42"
       fx="64.69"
       fy="68.23"
       r="56"
       gradientUnits="userSpaceOnUse"
       gradientTransform="matrix(-0.024,-0.02844,0.01757,-0.01483,0.33,292.52)" />
    <clipPath
       id="n">
      <path
         d="M-76.4 7.9c-30.97 0-56 25.04-56 56 0 30.97 25.03 56 56 56a55.62 55.62 0 0 0 54.53-44L-49 72.04A28.46 28.46 0 0 1-76.4 92.5 28.66 28.66 0 0 1-105 63.9a28.66 28.66 0 0 1 28.6-28.59c7.87 0 15.05 3.21 20.21 8.38a4 4 0 0 1 0 5.69L-66.8 60h43.94c2 0 2.46-.6 2.46-2.25l-.09-44.1-10.63 10.66a4 4 0 0 1-5.68 0 55.78 55.78 0 0 0-39.6-16.4z"
         fill="none"
         stroke="url(#c)"
         stroke-linecap="round"
         stroke-linejoin="round"
         stroke-dashoffset="1.09"
         filter="url(#filter3639)"
         id="path42" />
    </clipPath>
    <clipPath
       id="r">
      <path
         d="M-70.42 197.31a15.03 15.03 0 0 1-30.05 0 15.03 15.03 0 1 1 30.05 0z"
         fill="#f586db"
         fill-opacity=".78"
         stroke-width="4"
         id="path45" />
    </clipPath>
    <radialGradient
       xlink:href="#b"
       id="s"
       gradientUnits="userSpaceOnUse"
       gradientTransform="matrix(1.15534,0,0,1.15534,-100.7,30.87)"
       cx="16.04"
       cy="140.06"
       fx="16.04"
       fy="140.06"
       r="13.01" />
    <linearGradient
       xlink:href="#e"
       id="l"
       gradientUnits="userSpaceOnUse"
       gradientTransform="matrix(-0.0378,-0.0378,0.0378,-0.0378,-4.7,289.52)"
       x1="-131.91"
       y1="37.42"
       x2="-19.47"
       y2="58.94" />
    <linearGradient
       xlink:href="#a"
       id="o"
       gradientUnits="userSpaceOnUse"
       gradientTransform="translate(-140)"
       x1="75.09"
       y1="4.53"
       x2="75.09"
       y2="73.9" />
  </defs>
  <path
     d="M 6.35,0.1 C 4.81,0.1 3.57,0.39 2.66,0.97 A 3.67,3.67 0 0 0 1,4.22 c 0,1.91 1.54,4.47 2.01,5.2 0.54,0.85 1.13,1.61 1.65,2.16 0.68,0.7 1.21,1.03 1.69,1.03 0.48,0 1.01,-0.33 1.69,-1.03 0.52,-0.55 1.11,-1.31 1.65,-2.15 0.47,-0.74 2,-3.3 2,-5.21 0,-1.42 -0.57,-2.54 -1.65,-3.25 A 6.75,6.75 0 0 0 6.35,0.09 Z"
     id="path53"
     style="fill:url(#g)"
     inkscape:connector-curvature="0" />
  <path
     d="m 9.1,2.41 a 3,3 0 0 0 -4.23,0 L 4.77,2.53 5.8,3.57 5.9,3.45 A 1.53,1.53 0 0 1 8.52,4.53 0.21,0.21 0 0 1 8.3,4.74 H 7.5 L 9.16,6.4 C 9.23,6.48 9.27,6.47 9.34,6.41 L 11,4.74 H 10.2 A 0.21,0.21 0 0 1 9.98,4.53 C 9.98,3.76 9.68,3 9.1,2.41 Z"
     id="path55"
     style="fill:url(#h);fill-rule:evenodd"
     inkscape:connector-curvature="0" />
  <path
     d="m 9.1,2.41 a 3,3 0 0 0 -4.23,0 L 4.77,2.53 5.8,3.57 5.9,3.45 A 1.53,1.53 0 0 1 8.52,4.53 0.21,0.21 0 0 1 8.3,4.74 H 7.5 L 9.16,6.4 C 9.23,6.48 9.27,6.47 9.34,6.41 L 11,4.74 H 10.2 A 0.21,0.21 0 0 1 9.98,4.53 C 9.98,3.76 9.68,3 9.1,2.41 Z"
     id="path57"
     style="opacity:0.5;fill:url(#i)"
     inkscape:connector-curvature="0" />
  <path
     d="m -75.9,7.9 a 55.96,55.96 0 0 0 -55.98,57.7 c 6,0.67 12.15,1.14 18.41,1.4 a 38.35,38.35 0 0 1 11.81,-28.78 38.52,38.52 0 0 1 61,10.37 L -61.16,59 H -42 c 7.93,-2.03 15.19,-3.44 22.1,-6.19 L -20,13.66 -30.63,24.31 a 4,4 0 0 1 -5.68,0 55.78,55.78 0 0 0 -39.6,-16.4 z"
     clip-path="url(#j)"
     transform="matrix(0.03779486,0.03779486,-0.03779486,0.03779486,12.279014,4.9807489)"
     id="path59"
     style="opacity:0.46000001;fill:url(#k)"
     inkscape:connector-curvature="0" />
  <g
     id="g67">
    <path
       d="m -1.53,292.1 a 3,3 0 0 0 4.23,0 l 0.11,-0.13 -1.04,-1.04 -0.1,0.13 a 1.53,1.53 0 0 1 -2.61,-1.08 0.21,0.21 0 0 1 0.21,-0.22 h 0.8 l -1.66,-1.66 c -0.07,-0.07 -0.11,-0.07 -0.17,0 l -1.67,1.66 h 0.8 a 0.21,0.21 0 0 1 0.22,0.22 c 0,0.76 0.3,1.53 0.88,2.11 z"
       transform="translate(5.3,-284.3)"
       id="path61"
       style="fill:url(#l);fill-rule:evenodd"
       inkscape:connector-curvature="0" />
    <path
       d="m -1.53,292.1 a 3,3 0 0 0 4.23,0 l 0.11,-0.13 -1.04,-1.04 -0.1,0.13 a 1.53,1.53 0 0 1 -2.61,-1.08 0.21,0.21 0 0 1 0.21,-0.22 h 0.8 l -1.66,-1.66 c -0.07,-0.07 -0.11,-0.07 -0.17,0 l -1.67,1.66 h 0.8 a 0.21,0.21 0 0 1 0.22,0.22 c 0,0.76 0.3,1.53 0.88,2.11 z"
       transform="translate(5.3,-284.3)"
       id="path63"
       style="opacity:0.5;fill:url(#m)"
       inkscape:connector-curvature="0" />
    <path
       d="m -75.9,7.9 a 55.96,55.96 0 0 0 -55.98,57.7 c 6,0.67 12.15,1.14 18.41,1.4 a 38.35,38.35 0 0 1 11.81,-28.78 38.52,38.52 0 0 1 61,10.37 L -61.16,59 H -42 c 7.93,-2.03 15.19,-3.44 22.1,-6.19 L -20,13.66 -30.63,24.31 a 4,4 0 0 1 -5.68,0 55.78,55.78 0 0 0 -39.6,-16.4 z"
       clip-path="url(#n)"
       transform="matrix(-0.0378,-0.0378,0.0378,-0.0378,0.6,5.22)"
       id="path65"
       style="opacity:0.46000001;fill:url(#o)"
       inkscape:connector-curvature="0" />
  </g>
  <g
     id="g81">
    <g
       clip-path="url(#p)"
       transform="matrix(0.06482,0,0,0.06482,10.9,-9.95)"
       id="g73"
       style="opacity:0.8">
      <path
         d="m -70.42,197.31 a 15.03,15.03 0 0 1 -30.05,0 15.03,15.03 0 1 1 30.05,0 z"
         id="path69"
         inkscape:connector-curvature="0"
         style="fill:#a90000" />
      <path
         d="m -67.15,192.68 a 15.03,15.03 0 0 1 -30.05,0 15.03,15.03 0 1 1 30.05,0 z"
         id="path71"
         style="opacity:0.9;fill:url(#q)"
         inkscape:connector-curvature="0" />
    </g>
    <g
       clip-path="url(#r)"
       transform="matrix(-0.0648185,4.4121234e-4,-4.4121234e-4,-0.0648185,2.0285892,20.153096)"
       id="g79"
       style="opacity:0.8">
      <path
         d="m -70.42,197.31 a 15.03,15.03 0 0 1 -30.05,0 15.03,15.03 0 1 1 30.05,0 z"
         id="path75"
         inkscape:connector-curvature="0"
         style="fill:#a90000" />
      <path
         d="m -67.15,192.68 a 15.03,15.03 0 0 1 -30.05,0 15.03,15.03 0 1 1 30.05,0 z"
         id="path77"
         style="opacity:0.9;fill:url(#s)"
         inkscape:connector-curvature="0" />
    </g>
  </g>
  <path
     d="M 6.35,0.1 C 4.81,0.1 3.57,0.38 2.66,0.96 A 3.67,3.67 0 0 0 1,4.22 c 0,1.91 1.54,4.47 2.01,5.2 0.54,0.85 1.13,1.61 1.65,2.16 0.68,0.7 1.21,1.03 1.69,1.03 0.48,0 1.01,-0.33 1.69,-1.03 0.52,-0.55 1.11,-1.31 1.65,-2.15 0.47,-0.74 2,-3.3 2,-5.21 0,-1.42 -0.57,-2.54 -1.65,-3.25 A 6.75,6.75 0 0 0 6.35,0.1 Z m 0,0.03 C 6.91,0.15 7.44,0.2 7.9,0.31 a 5.82,5.82 0 0 1 1.6,0.66 3.65,3.65 0 0 1 1.24,1.36 c 0.14,0.27 0.25,0.57 0.32,0.88 A 4.61,4.61 0 0 1 10.92,5.74 C 10.77,6.26 10.56,6.78 10.34,7.26 9.9,8.23 9.39,9.06 9.16,9.43 8.62,10.27 8.04,11.03 7.51,11.58 7.17,11.93 6.87,12.19 6.59,12.36 A 0.96,0.96 0 0 1 6.35,12.46 0.96,0.96 0 0 1 6.11,12.36 4.76,4.76 0 0 1 5.19,11.58 14.42,14.42 0 0 1 3.54,9.43 C 3.31,9.06 2.8,8.23 2.36,7.26 2.14,6.78 1.93,6.26 1.78,5.74 A 4.6,4.6 0 0 1 1.64,3.22 3.73,3.73 0 0 1 2.48,1.58 3.65,3.65 0 0 1 3.93,0.58 C 4.2,0.48 4.49,0.38 4.8,0.31 5.26,0.21 5.8,0.15 6.35,0.13 Z"
     id="path83"
     inkscape:connector-curvature="0"
     style="opacity:0.25;fill:#1a1a1a" />
</svg>
